X:438
T:Mad Moll
M:9/8
L:1/8
%%MIDI gchord c2c
S:Colin Hume's website,  colinhume.com  - chords can also be printed below the stave.
N:Time signature changed from 9:4 to 9:8
Q:3/8=120
C:Henry Playford, Dancing Master 1695
K:C
P:A
|: "Am"c>de cAA cAA | "Am"c>de cAA "G"B2G | "Am"c>de cAA cAA | "G"B>cd d>ed B2G :|
P:B
|: "C"c>de gee gee | "C"c>de gee "G"f2d | "C"c>de gee gee | "G"B>cd d>ed B2G :|

